build/img/icons/plus.svg

<svg width="10" height="10" viewBox="0 0 10 10" fill="none" xmlns="http://www.w3.org/2000/svg">
<path d="M4.16758 9.33V5.63H0.467578V3.95H4.16758V0.269999H5.84758V3.95H9.53758V5.63H5.84758V9.33H4.16758Z" fill="#250707"/>
</svg>

<svg width="10" height="10" fill="none" xmlns="http://www.w3.org/2000/svg"><path d="M4.168 9.33v-3.7h-3.7V3.95h3.7V.27h1.68v3.68h3.69v1.68h-3.69v3.7h-1.68z" fill="#250707"/></svg>
